X:13
T:1. Pour quoy
T:(Ronde 1)
C:Tielman Susato
B:Tielman Susato: "Danserye" (1551) no. 13
R:Ronde
Z:Transcribed by Frank Nordberg - http://www.musicaviva.com
F:http://abc.musicaviva.com/tunes/susato-tielman/susato-1551-13/susato-1551-13-4m.abc
M:4/2
L:1/2
K:Ddor
V:1
DAA>A|GAFD|G>A G/F/E/D/|^C/B,/^CD2::D/E/F/G/AA|cBA2|D/E/F/G/AA|cBA2|
V:2
F,>G, A,/B,/C/D/|ECD2|DB,C_B,|A,2A,2::D2CF|EECD|DDCF|EE^C2|
V:3
A,2CC|B,A,_B,A,|G,>F, G,/A,/G,/F,/|E,/D,/E,D,2::A,A,A,C-|C/B,//A,//G,A,F,|A,A,A,C-|C/B,//A,//^G,A,2|
V:4
D,D,A,,>A,,|D,A,,D,2|G,,G,,C,D,|A,,2D,2::D,D,F,3/E,//D,//|C,/D,/E,A,,D,|D,D,F,3/E,//D,//|C,/D,/E,A,,2|
%
V:1
F/E/F/G/AA|F/E/F/G/AA|G/A/_B/A/ G/F/E/D/|^C/B,/D/^C/D2|F/E/F/G/AA|F/E/F/G/AA|G/A/_B/A/ G/F/E/D/|^C/B,/D/^C/D2:|
V:2
DDEC|DDED|D2C_B,|A,2A,2|DDEC|DDED|D2C_B,|A,2A,2:|
V:3
A,>B,CA,|A,/G,/A,/B,/CF,|G,>F, G,/A,/G,/F,/|E,/D,/E,D,2|A,>B,CA,|A,/G,/A,/B,/CF,|G,>F, G,/A,/G,/F,/|E,/D,/E,D,2:|
V:4
D,>C,A,,A,,|D,>C,A,,D,|G,,2C,D,|A,,2D,2|D,>C,A,,A,,|D,>C,A,,D,|G,,2C,D,|A,,2D,2:|
W:
W:
W:  From Musica Viva - http://www.musicaviva.com
W:  the Internet center for free sheet music downloads.
